assets/logo.svg

<?xml version="1.0" encoding="UTF-8"?>
<svg xmlns="http://www.w3.org/2000/svg" xmlns:xlink="http://www.w3.org/1999/xlink" width="64px" height="64px" viewBox="0 0 64 64" version="1.1">
<g id="surface1">
<path style=" stroke:none;fill-rule:nonzero;fill:rgb(99.607843%,100%,99.607843%);fill-opacity:1;" d="M 36.703125 0.0234375 C 33.496094 0.742188 30.90625 4.789062 29.542969 9.972656 C 31.828125 10.671875 34.113281 10.996094 36.703125 11.078125 Z M 36.703125 0.0234375 "/>
<path style=" stroke:none;fill-rule:nonzero;fill:rgb(99.607843%,100%,99.607843%);fill-opacity:1;" d="M 38.796875 0 L 38.796875 11.078125 C 41.453125 10.96875 43.824219 10.539062 46.175781 9.789062 C 44.546875 4.695312 41.976562 0.761719 38.796875 0 Z M 38.796875 0 "/>
<path style=" stroke:none;fill-rule:nonzero;fill:rgb(99.607843%,100%,99.607843%);fill-opacity:1;" d="M 32.523438 0.417969 C 28.578125 1.34375 25.003906 2.757812 21.691406 5.234375 C 23.675781 6.96875 25.03125 7.765625 27.59375 9.015625 C 28.925781 5.101562 30.550781 1.996094 32.523438 0.417969 Z M 32.523438 0.417969 "/>
<path style=" stroke:none;fill-rule:nonzero;fill:rgb(99.607843%,100%,99.607843%);fill-opacity:1;" d="M 43.449219 0.425781 C 45.78125 0.738281 50.53125 2.546875 53.949219 5.199219 C 51.820312 7.117188 50.320312 7.898438 47.945312 9.074219 C 46.675781 5.542969 45.429688 2.566406 43.449219 0.425781 Z M 43.449219 0.425781 "/>
<path style=" stroke:none;fill-rule:nonzero;fill:rgb(99.607843%,100%,99.607843%);fill-opacity:1;" d="M 20.011719 6.738281 C 16.050781 10.433594 13.671875 14.476562 12.472656 19.328125 C 15.316406 18.453125 17.742188 16.726562 20.601562 14.46875 C 21.152344 14.113281 21.578125 14.273438 21.902344 14.53125 C 23.277344 15.472656 24.355469 16.265625 25.960938 16.960938 C 26.265625 14.777344 26.609375 13.003906 27.058594 11.203125 C 24.316406 10.074219 22.066406 8.691406 20.011719 6.738281 Z M 20.011719 6.738281 "/>
<path style=" stroke:none;fill-rule:nonzero;fill:rgb(99.607843%,100%,99.607843%);fill-opacity:1;" d="M 55.773438 6.675781 C 53.121094 8.902344 51.417969 9.957031 48.621094 11.203125 C 50.003906 15.746094 50.28125 19.691406 50.390625 24.800781 L 63.921875 24.796875 C 63.800781 17.933594 60.933594 11.800781 55.773438 6.675781 Z M 55.773438 6.675781 "/>
<path style=" stroke:none;fill-rule:nonzero;fill:rgb(99.607843%,100%,99.607843%);fill-opacity:1;" d="M 29.074219 11.785156 C 28.394531 13.902344 28.121094 15.957031 27.828125 18.019531 C 30.703125 19.476562 33.289062 20.273438 36.601562 20.828125 L 36.628906 13.085938 C 33.976562 13.015625 31.609375 12.554688 29.074219 11.785156 Z M 29.074219 11.785156 "/>
<path style=" stroke:none;fill-rule:nonzero;fill:rgb(99.607843%,100%,99.607843%);fill-opacity:1;" d="M 46.664062 11.863281 C 44.050781 12.726562 41.683594 13.140625 38.726562 13.203125 L 38.726562 21.105469 C 40.21875 21.210938 41.449219 21.140625 42.675781 20.972656 C 43.410156 20.878906 43.796875 21.402344 43.882812 21.996094 C 44.023438 22.941406 44.097656 23.890625 44.203125 24.835938 L 48.324219 24.835938 C 48.226562 20.261719 47.675781 16.234375 46.664062 11.863281 Z M 46.664062 11.863281 "/>
<path style=" stroke:none;fill-rule:nonzero;fill:rgb(99.607843%,100%,99.607843%);fill-opacity:1;" d="M 50.351562 27.027344 C 50.246094 31.859375 49.695312 36.175781 48.601562 40.828125 C 51.300781 41.949219 53.523438 43.226562 55.703125 44.976562 C 60.773438 39.851562 63.777344 33.683594 63.929688 27.003906 Z M 50.351562 27.027344 "/>
<path style=" stroke:none;fill-rule:nonzero;fill:rgb(99.607843%,100%,99.607843%);fill-opacity:1;" d="M 0.453125 23.136719 C 7.265625 23.765625 14.476562 21.691406 19.976562 17.515625 L 20.003906 17.539062 L 20.003906 37.976562 L 1.097656 37.976562 C 0.199219 34.066406 -0.203125 29.851562 0.453125 23.136719 Z M 0.453125 23.136719 "/>
<path style=" stroke:none;fill-rule:nonzero;fill:rgb(99.607843%,100%,99.607843%);fill-opacity:1;" d="M 42.152344 23.183594 C 35.703125 23.796875 28.324219 21.550781 22.503906 17.527344 L 22.277344 17.527344 L 22.277344 37.976562 L 41.078125 37.976562 C 42.527344 32.269531 42.503906 27.753906 42.152344 23.183594 Z M 42.152344 23.183594 "/>
<path style=" stroke:none;fill-rule:nonzero;fill:rgb(99.607843%,100%,99.607843%);fill-opacity:1;" d="M 44.277344 27.027344 C 44.300781 31.078125 43.628906 35.152344 42.828125 38.925781 C 44.328125 39.277344 44.976562 39.453125 46.628906 39.976562 C 47.828125 35.503906 48.175781 31.953125 48.175781 27.027344 Z M 44.277344 27.027344 "/>
<path style=" stroke:none;fill-rule:nonzero;fill:rgb(99.607843%,100%,99.607843%);fill-opacity:1;" d="M 1.601562 40.253906 L 20.003906 40.253906 L 20.003906 63.902344 C 11.675781 58.425781 5.003906 50.953125 1.601562 40.253906 Z M 1.601562 40.253906 "/>
<path style=" stroke:none;fill-rule:nonzero;fill:rgb(99.607843%,100%,99.607843%);fill-opacity:1;" d="M 22.253906 40.253906 L 22.253906 63.925781 C 30.175781 58.453125 36.777344 50.753906 40.378906 40.253906 Z M 22.253906 40.253906 "/>
<path style=" stroke:none;fill-rule:nonzero;fill:rgb(99.607843%,100%,99.607843%);fill-opacity:1;" d="M 42.425781 41.152344 C 40.925781 45.703125 39.425781 49.003906 37.328125 51.976562 C 40.425781 52.175781 43.675781 48.453125 46.027344 42.253906 C 44.902344 41.675781 43.878906 41.425781 42.425781 41.152344 Z M 42.425781 41.152344 "/>
<path style=" stroke:none;fill-rule:nonzero;fill:rgb(99.607843%,100%,99.607843%);fill-opacity:1;" d="M 47.902344 42.777344 C 46.453125 46.726562 45.175781 49.476562 43.351562 51.351562 C 47.550781 50.402344 51.003906 48.476562 53.953125 46.328125 C 52.152344 44.675781 50.277344 43.675781 47.902344 42.777344 Z M 47.902344 42.777344 "/>
</g>
</svg>

<svg xmlns="http://www.w3.org/2000/svg" width="64" height="64" viewBox="0 0 64 64"><path d="M36.703.023c-3.207.72-5.797 4.766-7.16 9.95 2.285.699 4.57 1.023 7.16 1.105ZM38.797 0v11.078c2.656-.11 5.027-.539 7.379-1.289-1.63-5.094-4.2-9.027-7.38-9.789M32.523.418c-3.945.926-7.52 2.34-10.832 4.816 1.985 1.735 3.34 2.532 5.903 3.782 1.332-3.914 2.957-7.02 4.93-8.598M43.45.426c2.331.312 7.081 2.12 10.5 4.773-2.13 1.918-3.63 2.7-6.005 3.875-1.27-3.531-2.515-6.508-4.496-8.648M20.012 6.738c-3.961 3.696-6.34 7.739-7.54 12.59 2.844-.875 5.27-2.601 8.13-4.86.55-.355.976-.195 1.3.063 1.375.942 2.453 1.735 4.059 2.43a54 54 0 0 1 1.098-5.758c-2.743-1.129-4.993-2.512-7.047-4.465M55.773 6.676c-2.652 2.226-4.355 3.281-7.152 4.527 1.383 4.543 1.66 8.488 1.77 13.598l13.53-.004c-.12-6.863-2.987-12.996-8.148-18.121M29.074 11.785c-.68 2.117-.953 4.172-1.246 6.235 2.875 1.457 5.461 2.253 8.774 2.808l.027-7.742c-2.652-.07-5.02-.531-7.555-1.3M46.664 11.863c-2.613.864-4.98 1.278-7.937 1.34v7.902c1.492.106 2.722.036 3.949-.132.734-.094 1.12.43 1.207 1.023.14.945.215 1.895.32 2.84h4.121c-.097-4.574-.648-8.602-1.66-12.973M50.352 27.027c-.106 4.832-.657 9.149-1.75 13.801 2.699 1.121 4.921 2.399 7.101 4.149 5.07-5.125 8.074-11.293 8.227-17.973Zm0 0" style="stroke:none;fill-rule:nonzero;fill:#fefffe;fill-opacity:1"/><path d="M.453 23.137c6.813.629 14.024-1.446 19.524-5.621l.027.023v20.438H1.098c-.899-3.91-1.301-8.125-.645-14.84M42.152 23.184c-6.449.613-13.828-1.633-19.648-5.657h-.227v20.45h18.801c1.45-5.707 1.426-10.223 1.074-14.793M44.277 27.027c.024 4.051-.648 8.125-1.449 11.899 1.5.351 2.149.527 3.8 1.05 1.2-4.472 1.548-8.023 1.548-12.949ZM1.602 40.254h18.402v23.648c-8.328-5.476-15-12.949-18.402-23.648M22.254 40.254v23.672c7.922-5.473 14.523-13.172 18.125-23.672ZM42.426 41.152c-1.5 4.551-3 7.852-5.098 10.825 3.098.199 6.348-3.524 8.7-9.723-1.126-.578-2.15-.828-3.602-1.102M47.902 42.777c-1.449 3.95-2.726 6.7-4.55 8.575 4.199-.95 7.652-2.875 10.601-5.024-1.8-1.652-3.676-2.652-6.05-3.55m0 0" style="stroke:none;fill-rule:nonzero;fill:#fefffe;fill-opacity:1"/></svg>
